frontend/public/svg/objects/paint-roller.svg

<svg width="154" height="160" viewBox="0 0 154 160" fill="none" xmlns="http://www.w3.org/2000/svg">
<g clip-path="url(#clip0)">
<path d="M129.622 17.1372C133.068 17.1372 135.896 16.8746 138.656 17.1929C144.131 17.8308 148.401 20.4425 150.667 25.7102C153.793 32.6297 154.426 40.4176 152.459 47.751C151.064 52.9814 147.723 56.5829 143.025 59.0008C137.406 61.851 131.324 63.6756 125.063 64.3886C115.382 65.5556 105.644 66.2684 95.922 67.1234C92.3594 67.4371 88.7843 67.6104 85.0485 67.8578C82.8681 75.6098 83.6997 83.3638 83.2146 91.4827C84.6041 91.4827 85.7901 91.4105 86.9643 91.4991C88.5264 91.5831 90.0806 91.7787 91.6138 92.0865C92.9685 92.3911 93.5329 93.4386 93.5828 94.8537C93.8454 102.014 94.1926 109.172 94.4361 116.334C94.6677 123.177 94.7452 130.025 95.0038 136.867C95.2243 142.682 95.5814 148.493 95.9318 154.303C96.0336 155.2 95.8347 156.105 95.3654 156.876C94.8968 157.647 94.1847 158.24 93.3413 158.562C92.494 158.861 91.6 159.007 90.7015 158.996C83.852 158.918 77.0031 158.804 70.1542 158.652C69.1441 158.609 68.1425 158.446 67.1705 158.167C64.359 157.416 63.0424 155.808 62.9092 152.871C62.2168 137.619 61.7803 122.365 62.8869 107.112C63.1225 103.869 63.2111 100.606 63.6259 97.3871C64.0282 94.2695 66.1147 92.4344 69.2268 92.1161C71.1052 91.9238 72.9974 91.8621 75.2205 91.7223C75.4429 88.8291 75.6431 86.062 75.8702 83.2969C76.2909 78.1571 76.4892 72.9838 77.2177 67.8874C78.1136 61.6242 80.8229 59.3875 87.0555 58.9806C97.026 58.3288 107.005 57.7859 116.964 56.9937C123.801 56.5312 130.548 55.1769 137.032 52.9646C144.336 50.3832 146.824 47.2604 146.882 39.5491C146.907 36.2451 146.075 32.9001 145.363 29.6328C144.588 26.0775 142.036 24.1199 138.592 23.4018C136.071 22.8768 133.495 22.614 130.52 22.1658C130.674 23.7482 130.84 25.1573 130.942 26.571C131.144 29.367 131.402 32.1637 131.471 34.9643C131.602 40.2275 128.44 44.2844 122.645 44.5069C105.6 45.1632 88.5809 46.417 71.5358 47.1233C57.0684 47.7232 42.5843 48.0335 28.1048 48.168C22.7439 48.2179 17.3705 47.446 12.0115 46.9492C10.674 46.7901 9.36174 46.4635 8.10564 45.9772C4.38811 44.6383 2.03974 41.9479 1.74636 38.0355C1.09002 29.2845 1.13005 20.525 3.35504 11.9513C4.68215 6.83583 7.7604 3.39717 13.3478 2.93117C19.1597 2.44614 24.9735 1.77997 30.7958 1.66577C49.2048 1.30412 67.6161 0.966758 86.0297 1.01664C95.8944 1.04355 105.763 1.78653 115.617 2.41793C118.526 2.65686 121.397 3.23571 124.171 4.14274C129.396 5.75995 131.012 8.86842 129.85 14.1848C129.707 15.1625 129.631 16.149 129.622 17.1372ZM64.1963 6.5923L64.1891 6.97223C52.0678 7.23936 39.9432 7.42376 27.8279 7.81427C22.7944 7.97639 17.7721 8.54163 12.7518 8.99975C10.7828 9.17893 9.36902 10.1963 9.02904 12.2814C8.21321 17.3005 8.80135 22.1463 11.4018 26.547C13.143 29.4926 14.5403 29.4813 16.8821 27.0062C18.502 25.2958 20.074 23.5279 21.8224 21.9526C24.1853 19.8294 26.8671 18.2285 30.1264 17.8432C35.2505 17.2374 39.0191 19.4886 41.9464 23.4627C43.6076 25.7192 45.0581 28.1443 46.8479 30.2886C50.1716 34.2726 53.259 34.0953 56.4718 30.0543C58.2157 27.8601 59.8946 25.546 61.9752 23.7069C64.1113 21.9283 66.4367 20.3904 68.9091 19.1205C69.8654 18.6188 70.9398 18.3884 72.0175 18.4546C73.0946 18.5208 74.1336 18.8809 75.0203 19.4958C76.5797 20.5708 78.0119 21.818 79.2911 23.2141C81.098 25.0518 82.681 27.1108 84.5319 28.898C86.6322 30.9274 87.175 30.7699 89.2011 28.6919C90.7711 26.9442 92.4939 25.3404 94.3494 23.9005C97.9356 21.3579 101.779 21.0128 105.686 23.4012C106.914 24.1802 108.203 24.8591 109.539 25.4318C114.095 27.2918 117.686 26.2718 120.217 22.0844C121.643 19.5491 122.866 16.9058 123.876 14.1788C124.795 11.919 124.44 11.291 122.187 10.3977C121.462 10.0956 120.703 9.88325 119.926 9.76504C114.927 9.10083 109.938 8.13863 104.917 7.91154C91.3513 7.30706 77.7703 7.01302 64.1963 6.5923ZM125.926 24.2774L125.139 24.0803C124.568 24.7366 123.998 25.393 123.426 26.0493C122.178 27.5761 120.558 28.7572 118.723 29.4794C116.887 30.2016 114.897 30.441 112.943 30.1745C109.835 29.8607 107.18 28.5335 104.56 26.9806C101.316 25.0569 99.1781 25.2022 96.3105 27.6542C94.7839 28.9604 93.4745 30.5211 92.0791 31.9788C89.4295 34.7466 86.9846 35.0716 83.7135 32.9982C82.8556 32.4691 82.0661 31.8354 81.3638 31.1119C79.6737 29.3181 78.0381 27.4703 76.4412 25.5939C73.1858 21.7694 71.4045 21.5286 67.3733 24.6331C66.1425 25.6046 65.0069 26.6913 63.9823 27.8786C62.2043 29.8968 60.5536 32.026 58.8215 34.0856C56.4259 36.9334 53.4993 37.907 49.8061 36.9362C46.7473 36.1243 44.0897 34.2244 42.3317 31.5929C41.0308 29.7677 39.8579 27.8518 38.5197 26.0541C34.8245 21.0948 30.7887 20.5315 25.9062 24.4492C23.8581 26.1913 21.9197 28.0584 20.1021 30.0399C16.1903 34.0678 12.6855 33.9819 9.00607 29.6842C8.34973 28.9169 7.71446 28.1325 6.73255 26.9505C6.73255 29.625 6.73255 31.6433 6.73255 33.6609C6.73255 34.1099 6.72533 34.56 6.75486 35.0069C7.05218 39.5311 7.9875 40.8552 12.4302 41.4636C17.1989 42.1552 22.0065 42.5451 26.8244 42.6311C34.7858 42.7072 42.7531 42.4401 50.7151 42.2071C59.1234 41.961 67.5341 41.7069 75.9319 41.2389C89.7025 40.4717 103.465 39.5549 117.227 38.6373C120.215 38.4404 123.185 37.9685 125.925 37.6528L125.926 24.2774ZM87.7467 151.26C88.8998 143.276 88.9314 103.064 87.8412 98.2207L69.0135 97.5236C69.3548 115.299 69.6908 132.828 70.0301 150.507L87.7467 151.26Z" fill="black"/>
</g>
<defs>
<clipPath id="clip0">
<rect width="152.927" height="158.177" fill="white" transform="translate(0.843018 0.954102)"/>
</clipPath>
</defs>
</svg>

<svg xmlns="http://www.w3.org/2000/svg" width="154" height="160" fill="none" viewBox="0 0 154 160"><g clip-path="url(#a)"><path fill="#000" d="M129.622 17.137c3.446 0 6.274-.262 9.034.056 5.475.638 9.745 3.25 12.011 8.517a32.86 32.86 0 0 1 1.792 22.041c-1.395 5.23-4.736 8.832-9.434 11.25a53 53 0 0 1-17.962 5.388c-9.681 1.167-19.419 1.88-29.141 2.734-3.563.314-7.138.487-10.873.735-2.18 7.752-1.35 15.506-1.834 23.625 1.39 0 2.575-.073 3.75.016 1.561.084 3.116.28 4.649.588 1.355.304 1.919 1.352 1.969 2.767.262 7.16.61 14.318.853 21.48.232 6.843.31 13.691.568 20.533.22 5.815.577 11.626.928 17.436a4.066 4.066 0 0 1-2.59 4.259 7.7 7.7 0 0 1-2.64.434q-10.275-.117-20.548-.344a12.8 12.8 0 0 1-2.983-.485c-2.812-.751-4.129-2.359-4.262-5.296-.692-15.252-1.129-30.506-.022-45.759.236-3.243.324-6.506.739-9.725.402-3.118 2.489-4.953 5.6-5.27 1.88-.193 3.771-.255 5.995-.395.222-2.893.422-5.66.65-8.425.42-5.14.618-10.313 1.347-15.41.896-6.263 3.605-8.5 9.837-8.906 9.971-.652 19.95-1.195 29.909-1.987a78.6 78.6 0 0 0 20.068-4.03c7.304-2.58 9.792-5.704 9.85-13.415.025-3.304-.807-6.649-1.519-9.916-.775-3.555-3.327-5.513-6.771-6.231-2.521-.525-5.097-.788-8.072-1.236.154 1.582.32 2.991.422 4.405.202 2.796.46 5.593.529 8.393.131 5.264-3.031 9.32-8.826 9.543-17.045.656-34.064 1.91-51.11 2.616-14.467.6-28.95.91-43.43 1.045-5.361.05-10.734-.722-16.094-1.219a16 16 0 0 1-3.905-.972c-3.718-1.339-6.066-4.03-6.36-7.941-.656-8.751-.616-17.511 1.609-26.085 1.327-5.115 4.405-8.554 9.993-9.02 5.812-.485 11.626-1.151 17.448-1.265 18.409-.362 36.82-.7 55.234-.65 9.864.028 19.733.77 29.587 1.402 2.909.239 5.78.818 8.554 1.725 5.225 1.617 6.841 4.725 5.679 10.042a22 22 0 0 0-.228 2.952M64.196 6.592l-.007.38c-12.121.267-24.246.452-36.361.842-5.034.162-10.056.728-15.076 1.186-1.97.179-3.383 1.196-3.723 3.281-.816 5.02-.228 9.865 2.373 14.266 1.741 2.946 3.138 2.934 5.48.46 1.62-1.711 3.192-3.48 4.94-5.054 2.363-2.124 5.045-3.724 8.304-4.11 5.125-.606 8.893 1.646 11.82 5.62 1.662 2.256 3.112 4.681 4.902 6.826 3.324 3.984 6.411 3.806 9.624-.235 1.744-2.194 3.423-4.508 5.503-6.347a38 38 0 0 1 6.934-4.587 5.91 5.91 0 0 1 6.111.376 25.2 25.2 0 0 1 4.271 3.718c1.807 1.838 3.39 3.897 5.24 5.684 2.101 2.03 2.644 1.872 4.67-.206A39.4 39.4 0 0 1 94.35 23.9c3.587-2.543 7.43-2.888 11.337-.5a27 27 0 0 0 3.853 2.03c4.556 1.86 8.147.84 10.678-3.347a55 55 0 0 0 3.659-7.905c.919-2.26.564-2.888-1.689-3.781a9.7 9.7 0 0 0-2.261-.633c-4.999-.664-9.988-1.626-15.009-1.853-13.566-.605-27.147-.899-40.72-1.32m61.73 17.685-.787-.197-1.713 1.97a11.53 11.53 0 0 1-10.483 4.124c-3.108-.313-5.763-1.64-8.383-3.193-3.244-1.924-5.382-1.779-8.25.673-1.526 1.306-2.835 2.867-4.23 4.325-2.65 2.768-5.095 3.093-8.367 1.02a12.2 12.2 0 0 1-2.35-1.887 146 146 0 0 1-4.922-5.518c-3.255-3.825-5.037-4.065-9.068-.96a24.7 24.7 0 0 0-3.39 3.245c-1.779 2.018-3.43 4.147-5.161 6.207-2.396 2.847-5.323 3.821-9.016 2.85a13 13 0 0 1-7.474-5.343c-1.301-1.825-2.474-3.741-3.812-5.539-3.696-4.96-7.731-5.522-12.614-1.605a65 65 0 0 0-5.804 5.59c-3.912 4.029-7.417 3.943-11.096-.355-.656-.767-1.292-1.552-2.273-2.733v6.71c0 .449-.008.899.022 1.346.297 4.524 1.233 5.848 5.675 6.457a115 115 0 0 0 14.394 1.167c7.962.076 15.93-.19 23.891-.424 8.408-.246 16.82-.5 25.217-.968 13.77-.767 27.533-1.684 41.295-2.602 2.988-.197 5.958-.669 8.698-.984zM87.746 151.26c1.154-7.984 1.185-48.196.095-53.04l-18.827-.696 1.016 52.983z"/></g><defs><clipPath id="a"><path fill="#fff" d="M.843.954H153.77v158.177H.843z"/></clipPath></defs></svg>
